Papirus/48x48/status/changes-allow.svg

<svg xmlns="http://www.w3.org/2000/svg" width="48" height="48" version="1">
 <path style="opacity:0.2" d="M 23,5 C 17.412709,5 12.83578,9.5475158 12.111328,15 h 4.039063 C 16.80517,11.696456 19.56204,9 23,9 h 2 c 3.947189,0 7,3.552811 7,7.5 V 21 c 0,3.947189 -3.052811,7 -7,7 h -2 c -3.947189,0 -7,-3.052811 -7,-7 h -4 c 0,6.094 4.906,11 11,11 h 2 c 6.094,0 11,-4.906 11,-11 V 16.5 C 36,10.406 31.094,5 25,5 Z"/>
 <path style="fill:#d2d2d2" d="M 23 4 C 17.412709 4 12.83578 8.5475158 12.111328 14 L 16.150391 14 C 16.80517 10.696456 19.56204 8 23 8 L 25 8 C 28.947189 8 32 11.552811 32 15.5 L 32 20 C 32 23.947189 28.947189 27 25 27 L 23 27 C 19.052811 27 16 23.947189 16 20 L 12 20 C 12 26.094 16.906 31 23 31 L 25 31 C 31.094 31 36 26.094 36 20 L 36 15.5 C 36 9.406 31.094 4 25 4 L 23 4 z"/>
 <path opacity=".2" d="m8 42v1c0 1.108 0.892 2 2 2h28c1.108 0 2-0.892 2-2v-1c0 1.108-0.892 2-2 2h-28c-1.108 0-2-0.892-2-2z"/>
 <rect style="fill:#fe3c38" width="24" height="32" x="-44" y="-40" rx="2" ry="2" transform="matrix(0,-1,-1,0,0,0)"/>
 <path fill="#fff" opacity=".2" d="m10 20c-1.108 0-2 0.892-2 2v1c0-1.108 0.892-2 2-2h28c1.108 0 2 0.892 2 2v-1c0-1.108-0.892-2-2-2h-28z"/>
 <rect style="fill:#fe6a6a" width="32" height="14" x="8" y="24" rx="0" ry="0"/>
 <path style="opacity:0.2;fill:#ffffff" d="M 23 4 C 17.412709 4 12.83578 8.5475158 12.111328 14 L 12.287109 14 C 13.404641 9.0028437 17.758025 5 23 5 L 25 5 C 31.094 5 36 10.406 36 16.5 L 36 15.5 C 36 9.406 31.094 4 25 4 L 23 4 z"/>
</svg>

<svg xmlns="http://www.w3.org/2000/svg" width="48" height="48" version="1">
 <path style="opacity:0.2" d="M 23,5 C 17.413,5 12.836,9.5475 12.111,15 H 16.15 C 16.805,11.696 19.562,9 23,9 H 25 C 28.947,9 32,12.553 32,16.5 V 21 C 32,24.947 28.947,28 25,28 H 23 C 19.053,28 16,24.947 16,21 H 12 C 12,27.094 16.906,32 23,32 H 25 C 31.094,32 36,27.094 36,21 V 16.5 C 36,10.406 31.094,5 25,5 Z"/>
 <path style="fill:#d2d2d2" d="M 23,4 C 17.413,4 12.836,8.5475 12.111,14 H 16.15 C 16.805,10.696 19.562,8 23,8 H 25 C 28.947,8 32,11.553 32,15.5 V 20 C 32,23.947 28.947,27 25,27 H 23 C 19.053,27 16,23.947 16,20 H 12 C 12,26.094 16.906,31 23,31 H 25 C 31.094,31 36,26.094 36,20 V 15.5 C 36,9.406 31.094,4 25,4 Z"/>
 <path style="opacity:0.2" d="M 8,42 V 43 C 8,44.108 8.892,45 10,45 H 38 C 39.108,45 40,44.108 40,43 V 42 C 40,43.108 39.108,44 38,44 H 10 C 8.892,44 8,43.108 8,42 Z"/>
 <rect style="fill:#fe3c38" width="24" height="32" x="-44" y="-40" rx="2" ry="2" transform="matrix(0,-1,-1,0,0,0)"/>
 <path style="opacity:0.2;fill:#ffffff" d="M 10,20 C 8.892,20 8,20.892 8,22 V 23 C 8,21.892 8.892,21 10,21 H 38 C 39.108,21 40,21.892 40,23 V 22 C 40,20.892 39.108,20 38,20 Z"/>
 <rect style="fill:#fe6a6a" width="32" height="14" x="8" y="24" rx="0" ry="0"/>
 <path style="opacity:0.2;fill:#ffffff" d="M 23,4 C 17.413,4 12.836,8.5475 12.111,14 H 12.287 C 13.405,9.0028 17.758,5 23,5 H 25 C 31.094,5 36,10.406 36,16.5 V 15.5 C 36,9.406 31.094,4 25,4 Z"/>
 <path style="opacity:0.1;fill:#ffffff" d="M 8,39 V 41 C 8,42.108 8.892,43 10,43 H 38 C 39.108,43 40,42.108 40,41 V 39 C 40,40.108 39.108,41 38,41 H 10 C 8.892,41 8,40.108 8,39 Z"/>
 <path style="fill:#d4001b" d="M 8,40 V 42 C 8,43.108 8.892,44 10,44 H 38 C 39.108,44 40,43.108 40,42 V 40 C 40,41.108 39.108,42 38,42 H 10 C 8.892,42 8,41.108 8,40 Z"/>
</svg>
